X:218
T:Dusty Miller,The,aka TS.218
M:3/4
L:1/8
Q:1/4=120
S:Thomas Sands’ MS,1810,Lincolnshire
R:3/2hornpipe
C:Untitled in ms.
N:In different hand C
O:England;Lincolnshire
Z:vmp.Ruairidh Greig, 2011
K:G
B>c dBAG|F>G ABcA|B>c dBAG|DGGA BG:|
B>c defg|a>A ABcA|B>c defg|gG GABG:|]

